!!!!SEGMENT: pl-lzu--m-15111--001-049_noskowski-zygmunt--spiewnik-dla-dzieci-op-34-49-swierszczyk.krn
!!!cenid: 18xx:4746
!!!COM: Noskowski, Zygmunt
!!!COM-rismID: pe106604
!!!CDT: 1846/05/02-1909/07/23
!!!CNT: Polish
!!!GTL: Śpiewnik dla dzieci, op. 34
!!!OTL: 49. Świerszczyk
!!!OMV: 049
!!!PDT: 1890
!!!AGN: Secular; Song; Children
!!!YEC: Copyright 2022 Narodowy Instytut Fryderyka Chopina (https://polishscores.org)
!!!YEM: License CC-BY-4.0 (https://creativecommons.org/licenses/by/4.0)
!!!SMS-siglum: PL-LŹu
!!!SMS-shelfmark: M 15111
!!!SMS-variant:
!!!SMS-altvar:
!!!SMS-shelfwork: 001-049 G
!!!NIFC-rismSourceID: 1001234040
!!!NIFC-rismChildID: 1001234040
!!!NIFC-islandoraID: pl-lzu:5455
!!!URL-pdf-islandora: https://repozytorium.nifc.pl/islandora/object/pl-lzu%3A5455/datastream/PDF/view
!!!URL-scan: https://polish.musicsources.pl/pl/lokalizacje/galeria/druki-muzyczne/23228/60 @EN{Scan on Polish Music Sources Website} @PL{Skany w portalu Dziedzictwo Muzyki Polskiej w otwartym dostępie}
!!!IIIF:
!!!ONB-nifc:
!!!AIN: 1 canto 1 piano
!!!key: d
!!!OMD: Allegretto moderato.
**kern	**kern	**dynam	**kern	**text	**text	**text	**dynam
*part2	*part2	*part2	*part1	*part1	*part1	*part1	*part1
*staff3	*staff2	*staff2/3	*staff1	*staff1	*staff1	*staff1	*
*IGacmp	*IGacmp	*	*IGsolo	*	*	*	*
*ICklav	*ICklav	*	*ICvox	*	*	*	*
*I'pf	*I'pf	*	*I'V	*	*	*	*
*Ipiano	*Ipiano	*	*Icanto	*	*	*	*
*I"[Piano]	*I"[Piano]	*	*I"[Voice]	*	*	*	*
*clefF4	*clefG2	*	*clefG2	*	*	*	*
*k[b-]	*k[b-]	*	*k[b-]	*	*	*	*
*d:	*d:	*	*d:	*	*	*	*
*M2/4	*M2/4	*	*M2/4	*	*	*	*
*>[A,B,B1,B,B1,B,B2]	*>[A,B,B1,B,B1,B,B2]	*>[A,B,B1,B,B1,B,B2]	*>[A,B,B1,B,B1,B,B2]	*>[A,B,B1,B,B1,B,B2]	*>[A,B,B1,B,B1,B,B2]	*>[A,B,B1,B,B1,B,B2]	*>[A,B,B1,B,B1,B,B2]
=1	=1	=1	=1	=1	=1	=1	=1
*>A	*>A	*>A	*>A	*>A	*>A	*>A	*>A
!	!LO:TX:a:i:t=Umiarkowanie żwawo.	!	!	!	!	!	!
2D 2DD/	(16fLL 16d/	p	2r	.	.	.	.
.	16A/	.	.	.	.	.	.
.	16a/	.	.	.	.	.	.
.	16A/JJ	.	.	.	.	.	.
.	16fLL 16d/	.	.	.	.	.	.
.	16A/	.	.	.	.	.	.
.	16a/	.	.	.	.	.	.
.	16A/JJ	.	.	.	.	.	.
=2	=2	=2	=2	=2	=2	=2	=2
2D 2DD/	16fLL 16d/	.	2r	.	.	.	.
.	16A/	.	.	.	.	.	.
.	16a/	.	.	.	.	.	.
.	16A/JJ	.	.	.	.	.	.
.	16fLL 16d/	.	.	.	.	.	.
.	16A/	.	.	.	.	.	.
.	16a/	.	.	.	.	.	.
.	16A/JJ)	.	.	.	.	.	.
=3!|:	=3!|:	=3!|:	=3!|:	=3!|:	=3!|:	=3!|:	=3!|:
*>B	*>B	*>B	*>B	*>B	*>B	*>B	*>B
*	*	*	*	*v:1	*v:2	*v:3	*
!	!	!	!	!	!	!	!LO:DY:a
2A 2D\	16f/LL	.	8f/	Wi-	Mój	Si-	p
.	16d/	.	.	.	.	.	.
.	16a 16f/	.	8a/	-cher	świer-	-wy	.
.	16d/JJ	.	.	.	.	.	.
!	!LO:TX:b:i:t=sempre legato	!	!	!	!	!	!
.	16b-LL 16f/	.	8b-/	wie-	-szczy-	dzia-	.
.	16d/	.	.	.	.	.	.
.	16a 16f/	.	8a/	-je,	-ku,	-dek	.
.	16d/JJ	.	.	.	.	.	.
!!LO:PB:g=original
=4	=4	=4	=4	=4	=4	=4	=4
*	*	*	*	*v:1	*v:2	*v:3	*
2A 2D\	16b-LL 16f/	.	8b-/	deszcz	bądź-	wią-	.
.	16d/	.	.	.	.	.	.
.	16a 16f/	.	8a/	za-	-że	-że	.
.	16d/JJ	.	.	.	.	.	.
.	16g#XLL 16f/	.	8g#X/	-ci-	ci-	sie-	.
.	16d/	.	.	.	.	.	.
.	16a 16f/	.	8a/	-na,	-cho,	-ci,	.
.	16d/JJ	.	.	.	.	.	.
=5	=5	=5	=5	=5	=5	=5	=5
2c: 2D:^\	16g#XLL 16f/	.	8g#X/	Je-	Nie	Pra-	.
.	16d/	.	.	.	.	.	.
.	16a 16f/	.	8a/	-sień,	do-	-wi	.
.	16d/JJ	.	.	.	.	.	.
.	16dd/LL	.	8dd\	je-	-ku-	nam	.
.	16d/	.	.	.	.	.	.
.	16a 16f/	.	8a/	-sień	-czaj	aż	.
.	16d/JJ	.	.	.	.	.	.
=6	=6	=6	=6	=6	=6	=6	=6
2B- 2D\	16b-LL 16gn/	.	2b-,\	już.	nam.	strach!	.
.	16d/	.	.	.	.	.	.
.	16g/	.	.	.	.	.	.
.	16d/JJ	.	.	.	.	.	.
.	16g/LL	.	.	.	.	.	.
.	16d/	.	.	.	.	.	.
.	16g/	.	.	.	.	.	.
.	16d/JJ	.	.	.	.	.	.
!!LO:LB:g=original
=7	=7	=7	=7	=7	=7	=7	=7
*	*	*	*	*v:1	*v:2	*v:3	*
2B- 2D\	16g/LL	.	8g/	Świer-	To	A	.
.	16d/	.	.	.	.	.	.
.	16b- 16g/	.	8b-/	-ka	u-	tu	.
.	16d/JJ	.	.	.	.	.	.
.	16ccLL 16g/	.	8cc\	świer-	-par-	wi-	.
.	16d/	.	.	.	.	.	.
.	16b- 16g/	.	8b-\	-szczyk	-te	-cher	.
.	16d/JJ	.	.	.	.	.	.
=8	=8	=8	=8	=8	=8	=8	=8
2G 2D\	16ccLL 16g/	<	8cc\	z za	ja-	wskroś	.
.	16d/	.	.	.	.	.	.
.	16b- 16g/	.	8b-\	ko-	-kieś	za-	.
.	16d/JJ	.	.	.	.	.	.
.	16a/LL	.	8a/	-mi-	li-	-mie-	.
.	16d/	[[	.	.	.	.	.
.	16b- 16g/	.	8b-/	-na,	-cho,	-ci	.
.	16d/JJ	.	.	.	.	.	.
=9	=9	=9	=9	=9	=9	=9	=9
2G 2D\	16a/LL	.	8a/	Na-	Spij-	Bi-	.
.	16d/	.	.	.	.	.	.
.	16b- 16g/	.	8b-/	-szej	-że	-je	.
.	16d/JJ	.	.	.	.	.	.
!	!	!	!	!	!	!	!LO:HP:a
.	16ee/LL	.	8ee\	chat-	so-	o	<
.	.	.	.	.	.	.	[
.	16d/	.	.	.	.	.	.
.	16dd 16b- 16g/	.	8dd\	-ki	-bie	nasz	.
.	16d/JJ	.	.	.	.	.	.
!!LO:LB:g=original
=10	=10	=10	=10	=10	=10	=10	=10
*	*	*	*	*v:1	*v:2	*v:3	*
!	!	!	!	!	!	!	!LO:HP:a
4E\	16cc/LL	>	2cc,\	stróż.	sam!	dach!	>
.	16c/	.	.	.	.	.	.
.	16b- 16g/	.	.	.	.	.	.
.	16c/JJ	.	.	.	.	.	.
4C/	16b-LL 16e/	]	.	.	.	.	]
.	16c/	.	.	.	.	.	.
.	16b- 16e/	.	.	.	.	.	.
.	16c/JJ	.	.	.	.	.	.
=11	=11	=11	=11	=11	=11	=11	=11
4F\	16dd/LL	.	8dd\	Świer-	A	Dzia-	.
.	16c/	.	.	.	.	.	.
.	16cc 16a/	.	8cc\	-ka	my	-dek	.
.	16c/JJ	.	.	.	.	.	.
4C/	16aLL 16f/	.	8a/	świer-	ko-	dzi-	.
.	16c/	.	.	.	.	.	.
.	16b- 16f/	.	8b-/	-szczyk	-min	-wy	.
.	16c/JJ	.	.	.	.	.	.
=12	=12	=12	=12	=12	=12	=12	=12
4E\	16cc/LL	.	8cc\	co	ob-	przy-	.
.	16c/	.	.	.	.	.	.
.	16b- 16g/	.	8b-\	wie-	-sią-	-po-	.
.	16c/JJ	.	.	.	.	.	.
4C/	16aLL 16e/	.	8a/	-czo-	-dzie-	-mi-	.
.	16c/	.	.	.	.	.	.
.	16g 16e/	.	8g,/	-ra	-my	-na,	.
.	16B-/JJ	.	.	.	.	.	.
!!LO:PB:g=original
=13	=13	=13	=13	=13	=13	=13	=13
*	*	*	*	*v:1	*v:2	*v:3	*
4D/	16fLL 16d/	.	8.f/	I	Do	Pręd-	.
.	16A/	.	.	.	.	.	.
.	16d/	.	.	.	.	.	.
.	16eJJ 16A/	.	16e/	na-	ko-	-ko	.
8BB-/L	16fLL 16d/	.	8f/	-ga-	-lut-	pły-	.
.	16B-/	.	.	.	.	.	.
8GG/J	16g 16e/	.	8g/	-nia	-ka	-nie	.
.	16B-/JJ	.	.	.	.	.	.
=14	=14	=14	=14	=14	=14	=14	=14
2FF/	16aLL 16f/	.	2a,/	nas:	wnet,	czas;	.
.	16c/	.	.	.	.	.	.
.	16a/	.	.	.	.	.	.
.	16A/JJ	.	.	.	.	.	.
.	16fLL 16c/	.	.	.	.	.	.
.	16A/	.	.	.	.	.	.
.	16a/	.	.	.	.	.	.
.	16A/JJ	.	.	.	.	.	.
=15	=15	=15	=15	=15	=15	=15	=15
2EE/	16b-LL 16d/	.	8b-/	Spać	Słu-	Pró-	.
.	16B-/	.	.	.	.	.	.
!	!	!	!	!	!	!	!LO:DY:a
.	16a 16d/	<	8a/	już,	-chać	-żno	<
.	16B-/JJ	.	.	.	.	.	.
.	16gLL 16d/	.	8g/	dzie-	bę-	świer-	.
.	16B-/	.	.	.	.	.	.
.	16a 16d/	[	8a/	-ci,	-dziem	-szczyk	[
.	16B-/JJ	.	.	.	.	.	.
!!LO:LB:g=original
=16	=16	=16	=16	=16	=16	=16	=16
*	*	*	*	*v:1	*v:2	*v:3	*
2BB-/	16gLL 16d/	.	8g/	spać	te-	z za	.
.	16G/	.	.	.	.	.	.
!	!	!	!	!	!	!	!LO:DY:a
.	16f 16d/	.	8f/	już	-go	ko-	>
.	16G/JJ	>	.	.	.	.	.
.	16eLL 16d/	.	8e/	po-	dziad-	-mi-	.
.	16G/	.	.	.	.	.	.
.	16g 16d/	]	8g,/	-ra,	-ka,	-na	]
.	16G/JJ	.	.	.	.	.	.
=17	=17	=17	=17	=17	=17	=17	=17
!	!LO:TX:b:i:t=rallenando	!	!LO:TX:a:i:t=rallentando	!	!	!	!
2AA/	16fLL 16d/	.	8f/	Wiel-	Co	Do	.
.	16A/	.	.	.	.	.	.
.	16a/	.	8a/	-ki	był	snu	.
.	16A/JJ	.	.	.	.	.	.
.	16eLL 16c#X/	>	8e/	na	w świe-	wo-	.
.	16G/	.	.	.	.	.	.
.	16a/	.	8a/	was	-cie	-ła	.
.	16G/JJ	]	.	.	.	.	.
!!LO:LB:g=original
=18	=18	=18	=18	=18	=18	=18	=18
*	*clefF4	*	*	*v:1	*v:2	*v:3	*
2AA 2DD/	16dLL 16A\	.	[2d/	czas!	het!	nas!	.
!	!LO:TX:b:i:t=à tempo	!	!	!	!	!	!
.	16F\	.	.	.	.	.	.
.	16A\	.	.	.	.	.	.
.	16F\JJ	.	.	.	.	.	.
.	16d\LL	.	.	.	.	.	.
.	16F\	.	.	.	.	.	.
.	16A\	.	.	.	.	.	.
.	16F\JJ	.	.	.	.	.	.
=19	=19	=19	=19	=19	=19	=19	=19
*^	*	*	*	*	*	*	*
(8BB-/L	[2DD\	(16G\LL	.	4d/]	.	.	.	.
.	.	16E\	.	.	.	.	.	.
8AA/	.	16A\	pp	.	.	.	.	.
.	.	16F\JJ	.	.	.	.	.	.
8GG/	.	16B-\LL	.	4r	.	.	.	.
.	.	16G\	.	.	.	.	.	.
8AA/J	.	16A\	.	.	.	.	.	.
.	.	16F\JJ	.	.	.	.	.	.
=20	=20	=20	=20	=20	=20	=20	=20	=20
8BB-/L	2DD\]	16G\LL	.	2r	.	.	.	.
.	.	16E\	.	.	.	.	.	.
8GG/	.	16B-\	.	.	.	.	.	.
.	.	16G\JJ	.	.	.	.	.	.
8AA/	.	16A\LL	.	.	.	.	.	.
.	.	16F\	.	.	.	.	.	.
8BB-/J)	.	16G\	.	.	.	.	.	.
.	.	16E\JJ)	.	.	.	.	.	.
!!LO:PB:g=original
=21	=21	=21	=21	=21	=21	=21	=21	=21
(8GG/L	2DD\	(16B-\LL	.	2r	.	.	.	.
.	.	16G\	.	.	.	.	.	.
8AA/	.	16A\	.	.	.	.	.	.
.	.	16F\JJ	.	.	.	.	.	.
8BB-/	.	16G\LL	.	.	.	.	.	.
.	.	16E\	.	.	.	.	.	.
8GG/J)	.	16B-\	.	.	.	.	.	.
.	.	16G\JJ)	.	.	.	.	.	.
=22	=22	=22	=22	=22	=22	=22	=22	=22
!!LO:TX:a:B:t=1-ma e 2-da
*>B1	*>B1	*>B1	*>B1	*>B1	*>B1	*>B1	*>B1	*>B1
4AA/	4DD\	(<16A\LL	.	2r	.	.	.	.
.	.	16F\	.	.	.	.	.	.
.	.	16A\	.	.	.	.	.	.
.	.	16c#X\JJ	.	.	.	.	.	.
*	*	*clefG2	*	*	*	*	*	*
4r	4ryy	16d/LL	.	.	.	.	.	.
.	.	16A/	.	.	.	.	.	.
.	.	16d/	.	.	.	.	.	.
.	.	16e/JJ)	.	.	.	.	.	.
*v	*v	*	*	*	*	*	*	*
=23:|!	=23:|!	=23:|!	=23:|!	=23:|!	=23:|!	=23:|!	=23:|!
!!LO:TX:a:B:t=3-a
*>B2	*>B2	*>B2	*>B2	*>B2	*>B2	*>B2	*>B2
!	!LO:CL:ed	!	!	!	!	!	!
*	*clefF4	*	*	*	*	*	*
2AA 2DD;/::	2d;\:: 2A 2F	pp	2r;	.	.	.	.
==	==	==	==	==	==	==	==
*-	*-	*-	*-	*-	*-	*-	*-
!!!system-decoration: p1{p2}
!!!RDF**kern: > = above
!!!RDF**kern: < = below
!!!ENC: Andrzej Gręziak
!!!EED: Katarzyna Serwa
!!!END: 2025-03-07
!!!EEV: 2025-03-25
